X:1
T:Polka
L:1/8
M:2/4
I:linebreak $
K:G
V:1 treble 
V:1
 A>B cd | ea e>d |1 ea e>d | ^cA G2 :|2 ^cA BG | A2 A2 :: ea e>d | ea e>d |1 ea e>d | ^cA G2 :|2$ %10
 ^cA BG | A2 A2 :| %12
